!!!!SEGMENT: pl-wtm--r-1552--006_stefani-jozef--missa-no-13-sanctus.krn
!!!cenid: 18xx:1817
!!!COM: Stefani, Józef
!!!COM-rismID:
!!!CDT: 1800/04/16-1876/03/19
!!!CNT: Polish
!!!OPR: Missa No 13
!!!OTL: Sanctus
!!!OMV: 006
!!!PDT:
!!!AGN: Sacred; Mass
!!!SMS-siglum: PL-Wtm
!!!SMS-shelfmark: R 1552
!!!SMS-shelfwork: 001-006 M
!!!SMS-variant:
!!!SMS-altvar:
!!!NIFC-rismSourceID: 1001115180
!!!NIFC-islandoraID: pl-wtm:26719
!!!URL-pdf-islandora: https://repozytorium.nifc.pl/islandora/object/pl-wtm%3A26719/datastream/PDF/view
!!!URL-scan: https://polish.musicsources.pl/pl/lokalizacje/galeria/rekopisy/6353 @EN{Scan on Polish Music Herritage in Open Access Website} @PL{Skany w portalu Dziedzictwo Muzyki Polskiej w otwartym dostępie}
!!!ONB-nifc: UWAGA: części Mszy: 1. Kyrie, 2. Gloria, 3. Graduale, 4. Credo, 5. Offertorium, 6. Sanctus, 7. Benedictus, 8. Agnus Dei
!!!OMD: Adagio.
!!!AIN: 1 alto 5 empty 1 organ 1 soprn 1 tenor
!!!key:
**kern	**kern	**kern	**dynam	**kern	**dynam	**kern	**kern	**dynam	**kern	**text	**dynam	**kern	**kern	**text	**kern	**text	**dynam
*part9	*part9	*part8	*part8	*part7	*part7	*part6	*part5	*part5	*part4	*part4	*part4	*part3	*part2	*part2	*part1	*part1	*part1
*staff10	*staff9	*staff8	*	*staff7	*	*staff6	*staff5	*	*staff4	*staff4	*	*staff3	*staff2	*staff2	*staff1	*staff1	*
*Iorgan	*Iorgan	*Iempty	*	*Ialto	*	*Iempty	*Iempty	*	*Iempty	*	*	*Itenor	*Iempty	*	*Isoprn	*	*
*I"Organo	*I"Organo	*I"Baſsi	*	*I"Alto	*	*I"Vo. 2o.	*I"Vo. 1o.	*	*I"Baſsi	*	*	*I"Tenore	*[Soprani]	*	*I"Soprani	*	*
*I'org	*I'org	*I'b	*	*I'a	*	*I'vn 2	*I'vn 1	*	*I'B	*	*	*I'T	*I'[S]	*	*I'S	*	*
*clefF4	*clefG2	*clefF4	*	*clefC3	*	*clefG2	*clefG2	*	*clefF4	*	*	*clefC4	*clefG2	*	*clefG2	*	*
*	*	*	*	*	*	*	*	*	*	*	*	*ok[d#A#e#]	*	*	*	*	*
*k[f#c#g#]	*k[f#c#g#]	*k[f#c#g#]	*	*k[f#c#g#]	*	*k[f#c#g#]	*k[f#c#g#]	*	*k[f#c#g#]	*	*	*k[f#c#g#]	*k[f#c#g#]	*	*k[f#c#g#]	*	*
*A:	*A:	*A:	*	*A:	*	*A:	*A:	*	*A:	*	*	*A:	*A:	*	*A:	*	*
*M4/4	*M4/4	*M4/4	*	*M4/4	*	*M4/4	*M4/4	*	*M4/4	*	*	*M4/4	*M4/4	*	*M4/4	*	*
*met(c)	*met(c)	*met(c)	*	*met(c)	*	*met(c)	*met(c)	*	*met(c)	*	*	*met(c)	*met(c)	*	*met(c)	*	*
!!LO:TX:t=P:problem:all\right:global
!	!	!	!	!	!	!	!LO:TX:t=P:problem=dodatkowy zbędny system w taktach nr 1-5	!	!	!	!	!	!	!	!	!	!
!	!	!	!LO:DY:a	!	!	!	!	!LO:DY:b	!	!	!	!	!	!	!	!	!
4ryy	4e/ 4ee	4E\	f	4e\	.	4e/ 4ee	4e/ 4ee	f	4r	.	.	4r	4r	.	4r	.	.
=1	=1	=1	=1	=1	=1	=1	=1	=1	=1	=1	=1	=1	=1	=1	=1	=1	=1
*	*	*2\right	*	*2\right	*	*	*	*	*	*	*	*	*	*	*	*	*
*	*	*tremolo	*	*tremolo	*	*tremolo	*tremolo	*	*	*	*	*	*	*	*	*	*
1ryy	1ryy	32E\LLL	.	32e\LLL	.	32e/LLL 32ee	32e/LLL 32ee	.	1r	.	.	1r	1r	.	1r	.	.
.	.	32E\	.	32e\	.	32e/ 32ee	32e/ 32ee	.	.	.	.	.	.	.	.	.	.
.	.	32E\	.	32e\	.	32e/ 32ee	32e/ 32ee	.	.	.	.	.	.	.	.	.	.
.	.	32E\	.	32e\	.	32e/ 32ee	32e/ 32ee	.	.	.	.	.	.	.	.	.	.
.	.	32E\	.	32e\	.	32e/ 32ee	32e/ 32ee	.	.	.	.	.	.	.	.	.	.
.	.	32E\	.	32e\	.	32e/ 32ee	32e/ 32ee	.	.	.	.	.	.	.	.	.	.
.	.	32E\	.	32e\	.	32e/ 32ee	32e/ 32ee	.	.	.	.	.	.	.	.	.	.
.	.	32E\	.	32e\	.	32e/ 32ee	32e/ 32ee	.	.	.	.	.	.	.	.	.	.
.	.	32E\	.	32e\	.	32e/ 32ee	32e/ 32ee	.	.	.	.	.	.	.	.	.	.
.	.	32E\	.	32e\	.	32e/ 32ee	32e/ 32ee	.	.	.	.	.	.	.	.	.	.
.	.	32E\	.	32e\	.	32e/ 32ee	32e/ 32ee	.	.	.	.	.	.	.	.	.	.
.	.	32E\	.	32e\	.	32e/ 32ee	32e/ 32ee	.	.	.	.	.	.	.	.	.	.
.	.	32E\	.	32e\	.	32e/ 32ee	32e/ 32ee	.	.	.	.	.	.	.	.	.	.
.	.	32E\	.	32e\	.	32e/ 32ee	32e/ 32ee	.	.	.	.	.	.	.	.	.	.
.	.	32E\	.	32e\	.	32e/ 32ee	32e/ 32ee	.	.	.	.	.	.	.	.	.	.
.	.	32E\JJJ	.	32e\JJJ	.	32e/JJJ 32ee	32e/JJJ 32ee	.	.	.	.	.	.	.	.	.	.
*	*	*Xtremolo	*	*Xtremolo	*	*Xtremolo	*Xtremolo	*	*	*	*	*	*	*	*	*	*
!	!	!	!	!	!	!	!LO:SIC:v:n=2:s=4e	!	!	!	!	!	!	!	!	!	!
.	.	4E\	.	4e\	.	4e/ 4ee	4d/ 4ee	.	.	.	.	.	.	.	.	.	.
.	.	4E\	.	4e\	.	4g#/	4b\	.	.	.	.	.	.	.	.	.	.
=2	=2	=2	=2	=2	=2	=2	=2	=2	=2	=2	=2	=2	=2	=2	=2	=2	=2
*	*	*	*	*	*	*	*2\right	*	*	*	*	*	*	*	*	*	*
!	!	!	!	!	!	!	!	!	!	!	!	!	!	!	!LO:TX:a:i:u:B:t=Sanctus.	!	!
1ryy	1ryy	4A\	.	4a\	.	2a/	2cc#\	.	1r	.	.	1r	1r	.	1r	.	.
.	.	4C#/	.	4c#\	.	.	.	.	.	.	.	.	.	.	.	.	.
.	.	.	.	.	.	(8qcc#/	(8qee/	.	.	.	.	.	.	.	.	.	.
.	.	4BB/	.	4B/	.	4b/)	4dd\)	.	.	.	.	.	.	.	.	.	.
.	.	4E\	.	4e\	.	4a/	4b\	.	.	.	.	.	.	.	.	.	.
=3	=3	=3	=3	=3	=3	=3	=3	=3	=3	=3	=3	=3	=3	=3	=3	=3	=3
*	*	*^	*	*	*	*	*	*	*	*	*	*	*	*	*	*	*
1ryy	1ryy	4AA/	2ryy	.	4A/	.	4a/	4cc#\	.	1r	.	.	1r	1r	.	1r	.	.
.	.	4F#\	.	.	4f#\	.	4f#/	4a/	.	.	.	.	.	.	.	.	.	.
.	.	4E\	4ryy	.	4e\	.	4g#/	4b\	.	.	.	.	.	.	.	.	.	.
!	!	!	!	!LO:DY:a	!	!	!	!	!LO:DY:b	!	!	!	!	!	!	!	!	!
.	.	4E/	4r	p	4e\	.	4e/	4e/	p	.	.	.	.	.	.	.	.	.
*	*	*v	*v	*	*	*	*	*	*	*	*	*	*	*	*	*	*	*
=4	=4	=4	=4	=4	=4	=4	=4	=4	=4	=4	=4	=4	=4	=4	=4	=4	=4
*	*	*^	*	*	*	*	*	*	*	*	*	*	*	*	*	*	*
*	*	*tremolo	*	*	*tremolo	*	*tremolo	*tremolo	*	*	*	*	*	*	*	*	*	*
1ryy	1ryy	32E/LLL	1r	.	32e\LLL	.	32e/LLL	32e/LLL	.	1r	.	.	1r	1r	.	1r	.	.
.	.	32E/	.	.	32e\	.	32e/	32e/	.	.	.	.	.	.	.	.	.	.
.	.	32E/	.	.	32e\	.	32e/	32e/	.	.	.	.	.	.	.	.	.	.
.	.	32E/	.	.	32e\	.	32e/	32e/	.	.	.	.	.	.	.	.	.	.
.	.	32E/	.	.	32e\	.	32e/	32e/	.	.	.	.	.	.	.	.	.	.
.	.	32E/	.	.	32e\	.	32e/	32e/	.	.	.	.	.	.	.	.	.	.
.	.	32E/	.	.	32e\	.	32e/	32e/	.	.	.	.	.	.	.	.	.	.
.	.	32E/	.	.	32e\	.	32e/	32e/	.	.	.	.	.	.	.	.	.	.
.	.	32E/	.	.	32e\	.	32e/	32e/	.	.	.	.	.	.	.	.	.	.
.	.	32E/	.	.	32e\	.	32e/	32e/	.	.	.	.	.	.	.	.	.	.
.	.	32E/	.	.	32e\	.	32e/	32e/	.	.	.	.	.	.	.	.	.	.
.	.	32E/	.	.	32e\	.	32e/	32e/	.	.	.	.	.	.	.	.	.	.
.	.	32E/	.	.	32e\	.	32e/	32e/	.	.	.	.	.	.	.	.	.	.
.	.	32E/	.	.	32e\	.	32e/	32e/	.	.	.	.	.	.	.	.	.	.
.	.	32E/	.	.	32e\	.	32e/	32e/	.	.	.	.	.	.	.	.	.	.
.	.	32E/JJJ	.	.	32e\JJJ	.	32e/JJJ	32e/JJJ	.	.	.	.	.	.	.	.	.	.
*	*	*Xtremolo	*	*	*Xtremolo	*	*Xtremolo	*Xtremolo	*	*	*	*	*	*	*	*	*	*
.	.	4E/	.	.	4e\	.	4e/	4e/	.	.	.	.	.	.	.	.	.	.
.	.	4e/	.	.	4e\	.	4g#\ 4gg#	4b\ 4bb	.	.	.	.	.	.	.	.	.	.
=5	=5	=5	=5	=5	=5	=5	=5	=5	=5	=5	=5	=5	=5	=5	=5	=5	=5	=5
*	*	*	*	*	*	*	*2\right	*	*	*	*	*	*	*	*	*	*	*
1ryy	1ryy	4a/	1r	.	4a\	.	2a\ 2aa	2cc#\ 2ccc#	.	1r	.	.	1r	1r	.	1r	.	.
.	.	4c#/	.	.	4c#\	.	.	.	.	.	.	.	.	.	.	.	.	.
.	.	.	.	.	.	.	(<8qcc#/ 8qccc#	(<8qee/ 8qeee	.	.	.	.	.	.	.	.	.	.
.	.	4d/	.	.	4B/	.	4b\) 4bb	4dd\) 4ddd	.	.	.	.	.	.	.	.	.	.
.	.	4e/	.	.	4e\	.	4g#\ 4gg#	4b\ 4bb	.	.	.	.	.	.	.	.	.	.
!!LO:LB:g=original
=6	=6	=6	=6	=6	=6	=6	=6	=6	=6	=6	=6	=6	=6	=6	=6	=6	=6	=6
*clefG2	*	*	*	*	*	*	*	*	*	*	*	*	*	*	*	*	*	*
*^	*	*	*	*	*	*	*	*	*	*	*	*	*	*	*	*	*	*
!	!	!	!	!	!	!	!	!	!LO:TX:a:t=Quartetto.	!	!	!	!	!	!	!	!LO:TX:t=P:problem=głos Soprani rozpisany na dwie pięciolinii w tt. 7-10 [po konsultacji z J.I.]	!	!
4cc#/	4a\	4aa\ 4ccc#	4A/	2ryy	.	4A/	.	4a\ 4aa	4cc#\ 4ccc#	.	1r	.	.	1r	1r	.	1r	.	.
4f#/ 4a 4b 4dd#X	4ryy	4aa\ 4bb 4ddd#X	4f#/	.	.	4f#\	.	4a\ 4aa	4dd#X\ 4ddd#X	.	.	.	.	.	.	.	.	.	.
4e/ 4g# 4b 4ee	2ryy	4gg#\ 4bb 4eee	4e/	4ryy	.	4e\	.	4g#\ 4gg#	4ee\ 4eee	.	.	.	.	.	.	.	.	.	.
!	!	!	!	!	!LO:DY:a	!	!	!	!	!LO:DY:a	!	!	!	!	!	!	!	!	!
4e/	.	4ee\	4E/	4E\	f	4e\	.	4ee\	4ee\	f	.	.	.	.	.	.	.	.	.
*v	*v	*	*v	*v	*	*	*	*	*	*	*	*	*	*	*	*	*	*	*
=7	=7	=7	=7	=7	=7	=7	=7	=7	=7	=7	=7	=7	=7	=7	=7	=7	=7
(4.e/	(4.ee\	(4.E\	.	(4.e\	.	(4.ee\	(4.ee\	.	1r	.	.	1r	1r	.	1r	.	.
16f#/LL	16ff#\LL	16F#\LL	.	16f#\LL	.	16ff#\LL	16ff#\LL	.	.	.	.	.	.	.	.	.	.
16e/JJ	16ee\JJ	16E\JJ	.	16e\JJ	.	16ee\JJ	16ee\JJ	.	.	.	.	.	.	.	.	.	.
4d/)	4dd\)	4D\)	.	4d\)	.	4dd\)	4dd\)	.	.	.	.	.	.	.	.	.	.
4B/	4b\	4BB/	.	4B/	.	4b\	4b\	.	.	.	.	.	.	.	.	.	.
=8	=8	=8	=8	=8	=8	=8	=8	=8	=8	=8	=8	=8	=8	=8	=8	=8	=8
*clefF4	*	*	*	*	*	*	*	*	*	*	*	*	*	*	*	*	*
!LO:TX:t=P:problem=brak zmiany klucza na F4	!	!	!LO:DY:a	!	!	!	!	!	!	!	!	!	!	!	!	!	!
.	.	(8qAA/	p	.	.	.	.	.	.	.	.	.	.	.	.	.	.
*	*^	*	*	*	*	*	*	*	*	*	*	*	*	*	*	*	*
*2\right	*	*2\right	*	*	*	*	*	*	*	*2\right	*	*	*2\right	*2\right	*	*	*	*
2A\	2cc#/	2.e\	(2A\)	.	(2A/	.	[2a/	(2cc#\	p	2A\	.	.	2e\	2a\	Swię-	2cc#/	Swię-	.
4c#\	4a/	.	4c#\)	.	4c#/)	.	8a/L]	8a\L)	.	4c#\	.	.	4e\	4a\	-ty!	4a/	-ty!	.
!	!	!	!	!	!	!	!LO:TUP:b	!	!	!	!	!	!	!	!	!	!	!
.	.	.	.	.	.	.	(24c#/L	(24a\L	.	.	.	.	.	.	.	.	.	.
.	.	.	.	.	.	.	24e/	24cc#\	.	.	.	.	.	.	.	.	.	.
.	.	.	.	.	.	.	24a/JJ	24ee\JJ	.	.	.	.	.	.	.	.	.	.
4r	4r	4ryy	4r	.	4r	.	4cc#/)	4aa\)	.	4r	.	.	4r	4r	.	4r	.	.
=9	=9	=9	=9	=9	=9	=9	=9	=9	=9	=9	=9	=9	=9	=9	=9	=9	=9	=9
2d\	2b/	2.f#\	2d\	.	(2d\	.	[2f#/	(2b\	.	2d\	.	.	2f#\	2f#\	Swię-	2b/	Swię-	.
4B\	4dd/	.	4B\	.	4B/)	.	8f#/L]	8dd\L)	.	4B\	.	.	4f#\	4f#\	-ty!	4dd/	-ty!	.
!	!	!	!	!	!	!	!LO:TUP:b	!	!	!	!	!	!	!	!	!	!	!
.	.	.	.	.	.	.	(<24b/L	(24dd\L	.	.	.	.	.	.	.	.	.	.
.	.	.	.	.	.	.	24dd/	24ff#\	.	.	.	.	.	.	.	.	.	.
.	.	.	.	.	.	.	24ff#/JJ	24bb\JJ	.	.	.	.	.	.	.	.	.	.
4r	4r	4ryy	4r	.	4r	.	4bb\)	4ddd\)	.	4r	.	.	4r	4r	.	4r	.	.
*	*v	*v	*	*	*	*	*	*	*	*	*	*	*	*	*	*	*	*
!!LO:PB:g=original
=10	=10	=10	=10	=10	=10	=10	=10	=10	=10	=10	=10	=10	=10	=10	=10	=10	=10
*	*	*	*	*	*	*	*^	*	*	*	*	*	*	*	*	*	*
*	*	*	*	*	*	*	*	*	*	*	*	*	*ok[F#c#G#]	*	*	*	*	*
!	!	!	!LO:DY:a	!	!	!	!	!	!LO:DY:a	!	!	!LO:DY:a	!	!	!	!	!	!LO:DY:a
1E 1G# 1B	1e 1g# 1b 1ee	4E\	f	4B\ 4e	.	4g#/ 4ee	4ee/	4ee\	f	1E	Swię-	f	1B	1g#	.	1ee	Swię-	f
.	.	8.E\L	.	8.B\L 8.e	.	8.g#/L 8.ee	8.ee/L	8.ee\L	.	.	.	.	.	.	.	.	.	.
.	.	16E\Jk	.	16B\Jk 16e	.	16g#/Jk 16ee	16ee/Jk	16ee\Jk	.	.	.	.	.	.	.	.	.	.
.	.	4E\	.	4B\ 4e	.	4g#/ 4ee	4ee/	4ee\	.	.	.	.	.	.	.	.	.	.
.	.	4E\	.	4B\ 4e	.	4g#/ 4ee	4ee/	4ee\	.	.	.	.	.	.	.	.	.	.
*	*	*	*	*	*	*	*v	*v	*	*	*	*	*	*	*	*	*	*
=11	=11	=11	=11	=11	=11	=11	=11	=11	=11	=11	=11	=11	=11	=11	=11	=11	=11
4A\ 4c#	4e/ 4a 4cc#	4A\	.	4A/ 4e	.	4a/	4cc#\	.	4A\	-ty!	.	4c#\	4a/	.	4cc#\	-ty!	.
4r	4r	4r	.	4r	.	4r	4r	.	4r	.	.	4r	4r	.	4r	.	.
2r	2r	2r	.	2r	.	2r	2r	.	2r	.	.	2r	2r	.	2r	.	.
=12	=12	=12	=12	=12	=12	=12	=12	=12	=12	=12	=12	=12	=12	=12	=12	=12	=12
*	*	*	*	*tremolo	*	*tremolo	*tremolo	*	*	*	*	*	*	*	*2\right	*	*
!	!	!	!LO:DY:a	!	!	!	!	!	!LO:DY:b	!	!	!	!	!	!	!	!LO:DY:a
8DD/L 8D	2f#/ 2a 2dd 2ff#	8D\L	ff	32d\LLL	.	32a/LLL	32ff#\LLL	ff	2D\	Wład-	.	2d\	2a/	.	2ff#\	Wład-	ff
.	.	.	.	32d\	.	32a/	32ff#\	.	.	.	.	.	.	.	.	.	.
.	.	.	.	32d\	.	32a/	32ff#\	.	.	.	.	.	.	.	.	.	.
.	.	.	.	32d\	.	32a/	32ff#\	.	.	.	.	.	.	.	.	.	.
8CC#/ 8C#	.	8C#\	.	32c#\	.	32a/	32ff#\	.	.	.	.	.	.	.	.	.	.
.	.	.	.	32c#\	.	32a/	32ff#\	.	.	.	.	.	.	.	.	.	.
.	.	.	.	32c#\	.	32a/	32ff#\	.	.	.	.	.	.	.	.	.	.
.	.	.	.	32c#\	.	32a/	32ff#\	.	.	.	.	.	.	.	.	.	.
8DD/ 8D	.	8D\	.	32d\	.	32a/	32ff#\	.	.	.	.	.	.	.	.	.	.
.	.	.	.	32d\	.	32a/	32ff#\	.	.	.	.	.	.	.	.	.	.
.	.	.	.	32d\	.	32a/	32ff#\	.	.	.	.	.	.	.	.	.	.
.	.	.	.	32d\	.	32a/	32ff#\	.	.	.	.	.	.	.	.	.	.
8EE/J 8E	.	8E\J	.	32e\	.	32a/	32ff#\	.	.	.	.	.	.	.	.	.	.
.	.	.	.	32e\	.	32a/	32ff#\	.	.	.	.	.	.	.	.	.	.
.	.	.	.	32e\	.	32a/	32ff#\	.	.	.	.	.	.	.	.	.	.
.	.	.	.	32e\JJJ	.	32a/	32ff#\JJJ	.	.	.	.	.	.	.	.	.	.
8FF#/L 8F#	4.d/ 4.a 4.dd	8F#\L	.	32f#\LLL	.	32a/	32dd\LLL	.	4.F#\	-ca	.	4.d\	4.a/	.	4.dd\	-ca	.
.	.	.	.	32f#\	.	32a/	32dd\	.	.	.	.	.	.	.	.	.	.
.	.	.	.	32f#\	.	32a/	32dd\	.	.	.	.	.	.	.	.	.	.
.	.	.	.	32f#\	.	32a/	32dd\	.	.	.	.	.	.	.	.	.	.
8EE#X/ 8E#X	.	8E#X\	.	32e#X\	.	32a/	32dd\	.	.	.	.	.	.	.	.	.	.
.	.	.	.	32e#\	.	32a/	32dd\	.	.	.	.	.	.	.	.	.	.
.	.	.	.	32e#\	.	32a/	32dd\	.	.	.	.	.	.	.	.	.	.
.	.	.	.	32e#\	.	32a/JJJ	32dd\JJJ	.	.	.	.	.	.	.	.	.	.
8FF#/ 8F#	.	8F#\	.	32f#\	.	32a\LLL	32dd\LLL	.	.	.	.	.	.	.	.	.	.
.	.	.	.	32f#\	.	32a\	32dd\	.	.	.	.	.	.	.	.	.	.
.	.	.	.	32f#\	.	32a\	32dd\	.	.	.	.	.	.	.	.	.	.
.	.	.	.	32f#\	.	32a\	32dd\	.	.	.	.	.	.	.	.	.	.
8DD/J 8D	8a\ 8dd 8ff#	8D\J	.	32d\	.	32dd\	32ff#\	.	8D\	za-	.	8d\	8a/	.	8ff#\	za-	.
.	.	.	.	32d\	.	32dd\	32ff#\	.	.	.	.	.	.	.	.	.	.
.	.	.	.	32d\	.	32dd\	32ff#\	.	.	.	.	.	.	.	.	.	.
.	.	.	.	32d\JJJ	.	32dd\JJJ	32ff#\JJJ	.	.	.	.	.	.	.	.	.	.
=13	=13	=13	=13	=13	=13	=13	=13	=13	=13	=13	=13	=13	=13	=13	=13	=13	=13
*^	*^	*	*	*	*	*	*	*	*	*	*	*	*	*	*	*	*
8AA/L	2AA\	1a 1ee	4dd\	8AA\L	.	32a\LLL	.	32dd\LLL	32ee\LLL	.	2A\	-stę-	.	(4d\	2a/	.	2ee\	-stę-	.
.	.	.	.	.	.	32a\	.	32dd\	32ee\	.	.	.	.	.	.	.	.	.	.
.	.	.	.	.	.	32a\	.	32dd\	32ee\	.	.	.	.	.	.	.	.	.	.
.	.	.	.	.	.	32a\	.	32dd\	32ee\	.	.	.	.	.	.	.	.	.	.
8E/	.	.	.	8E\	.	32a\	.	32dd\	32ee\	.	.	.	.	.	.	.	.	.	.
.	.	.	.	.	.	32a\	.	32dd\	32ee\	.	.	.	.	.	.	.	.	.	.
.	.	.	.	.	.	32a\	.	32dd\	32ee\	.	.	.	.	.	.	.	.	.	.
.	.	.	.	.	.	32a\	.	32dd\JJJ	32ee\	.	.	.	.	.	.	.	.	.	.
8A/	.	.	8cc#\L	8A\	.	32a\	.	32cc#\LLL	32ee\	.	.	.	.	8c#\L	.	.	.	.	.
.	.	.	.	.	.	32a\	.	32cc#\	32ee\	.	.	.	.	.	.	.	.	.	.
.	.	.	.	.	.	32a\	.	32cc#\	32ee\	.	.	.	.	.	.	.	.	.	.
.	.	.	.	.	.	32a\	.	32cc#\	32ee\	.	.	.	.	.	.	.	.	.	.
8E/J	.	.	8b\J	8E\J	.	32a\	.	32b\	32ee\	.	.	.	.	8B\J)	.	.	.	.	.
.	.	.	.	.	.	32a\	.	32b\	32ee\	.	.	.	.	.	.	.	.	.	.
.	.	.	.	.	.	32a\	.	32b\	32ee\	.	.	.	.	.	.	.	.	.	.
.	.	.	.	.	.	32a\JJJ	.	32b\JJJ	32ee\	.	.	.	.	.	.	.	.	.	.
*rep	*	*	*	*	*	*	*	*	*	*	*	*	*	*	*	*	*	*	*
8AA/L	2AA\	.	2cc#\	8AA\L	.	32A/LLL	.	32cc#\LLL	32ee\	.	2AA/	-pów	.	2c#\	2a/	.	2ee\	-pów	.
.	.	.	.	.	.	32A/	.	32cc#\	32ee\	.	.	.	.	.	.	.	.	.	.
.	.	.	.	.	.	32A/	.	32cc#\	32ee\	.	.	.	.	.	.	.	.	.	.
.	.	.	.	.	.	32A/	.	32cc#\	32ee\	.	.	.	.	.	.	.	.	.	.
8E/	.	.	.	8E\	.	32A/	.	32cc#\	32ee\	.	.	.	.	.	.	.	.	.	.
.	.	.	.	.	.	32A/	.	32cc#\	32ee\	.	.	.	.	.	.	.	.	.	.
.	.	.	.	.	.	32A/	.	32cc#\	32ee\	.	.	.	.	.	.	.	.	.	.
.	.	.	.	.	.	32A/	.	32cc#\	32ee\	.	.	.	.	.	.	.	.	.	.
8A/	.	.	.	8A\	.	32A/	.	32cc#\	32ee\	.	.	.	.	.	.	.	.	.	.
.	.	.	.	.	.	32A/	.	32cc#\	32ee\	.	.	.	.	.	.	.	.	.	.
.	.	.	.	.	.	32A/	.	32cc#\	32ee\	.	.	.	.	.	.	.	.	.	.
.	.	.	.	.	.	32A/	.	32cc#\	32ee\	.	.	.	.	.	.	.	.	.	.
8E/J	.	.	.	8E\J	.	32A/	.	32cc#\	32ee\	.	.	.	.	.	.	.	.	.	.
*Xrep	*	*	*	*	*	*	*	*	*	*	*	*	*	*	*	*	*	*	*
.	.	.	.	.	.	32A/	.	32cc#\	32ee\	.	.	.	.	.	.	.	.	.	.
.	.	.	.	.	.	32A/	.	32cc#\	32ee\	.	.	.	.	.	.	.	.	.	.
.	.	.	.	.	.	32A/JJJ	.	32cc#\JJJ	32ee\JJJ	.	.	.	.	.	.	.	.	.	.
=14	=14	=14	=14	=14	=14	=14	=14	=14	=14	=14	=14	=14	=14	=14	=14	=14	=14	=14	=14
8BB/L	2BB\	2f#/ 2b 2dd	2ryy	8BB\L	.	32d\LLL	.	32b\LLL	32dd\LLL	.	4.BB/	Pan	.	4.B\	4.f#/	.	4.dd\	Pan	.
.	.	.	.	.	.	32d\	.	32b\	32dd\	.	.	.	.	.	.	.	.	.	.
.	.	.	.	.	.	32d\	.	32b\	32dd\	.	.	.	.	.	.	.	.	.	.
.	.	.	.	.	.	32d\	.	32b\	32dd\	.	.	.	.	.	.	.	.	.	.
8F#/	.	.	.	8F#\	.	32d\	.	32b\	32dd\	.	.	.	.	.	.	.	.	.	.
.	.	.	.	.	.	32d\	.	32b\	32dd\	.	.	.	.	.	.	.	.	.	.
.	.	.	.	.	.	32d\	.	32b\	32dd\	.	.	.	.	.	.	.	.	.	.
.	.	.	.	.	.	32d\	.	32b\	32dd\	.	.	.	.	.	.	.	.	.	.
8B/	.	.	.	8B\	.	32d\	.	32b\	32dd\	.	.	.	.	.	.	.	.	.	.
.	.	.	.	.	.	32d\	.	32b\	32dd\	.	.	.	.	.	.	.	.	.	.
.	.	.	.	.	.	32d\	.	32b\	32dd\	.	.	.	.	.	.	.	.	.	.
.	.	.	.	.	.	32d\	.	32b\	32dd\	.	.	.	.	.	.	.	.	.	.
8F#/J	.	.	.	8F#\J	.	32d\	.	32b\	32dd\	.	8BB/	Bóg	.	8B\	8f#/	.	8dd\	Bóg	.
.	.	.	.	.	.	32d\	.	32b\	32dd\	.	.	.	.	.	.	.	.	.	.
.	.	.	.	.	.	32d\	.	32b\	32dd\	.	.	.	.	.	.	.	.	.	.
.	.	.	.	.	.	32d\	.	32b\JJJ	32dd\JJJ	.	.	.	.	.	.	.	.	.	.
!	!	!	!	!	!	!	!	!	!	!	!	!	!	!LO:TX:t=P:problem=zmiana rytmiczna [4.B 8B] dopisana ołówkiem	!	!	!	!	!
8D/L	2D\	4b/	2f#\	8D\L	.	32d\	.	32f#/LLL	32b\LLL	.	4D\	nie-	.	4B\	4f#/	.	4b\	nie-	.
.	.	.	.	.	.	32d\	.	32f#/	32b\	.	.	.	.	.	.	.	.	.	.
.	.	.	.	.	.	32d\	.	32f#/	32b\	.	.	.	.	.	.	.	.	.	.
.	.	.	.	.	.	32d\	.	32f#/	32b\	.	.	.	.	.	.	.	.	.	.
8F#/	.	.	.	8F#\	.	32d\	.	32f#/	32b\	.	.	.	.	.	.	.	.	.	.
.	.	.	.	.	.	32d\	.	32f#/	32b\	.	.	.	.	.	.	.	.	.	.
.	.	.	.	.	.	32d\	.	32f#/	32b\	.	.	.	.	.	.	.	.	.	.
.	.	.	.	.	.	32d\JJJ	.	32f#/	32b\JJJ	.	.	.	.	.	.	.	.	.	.
8B/	.	4b/ 4dd	.	8B\	.	32B/LLL	.	32f#/	32dd\LLL	.	4BB/	-po-	.	4B\	4f#/	.	4dd\	-po-	.
.	.	.	.	.	.	32B/	.	32f#/	32dd\	.	.	.	.	.	.	.	.	.	.
.	.	.	.	.	.	32B/	.	32f#/	32dd\	.	.	.	.	.	.	.	.	.	.
.	.	.	.	.	.	32B/	.	32f#/	32dd\	.	.	.	.	.	.	.	.	.	.
8F#/J	.	.	.	8D\J	.	32B/	.	32f#/	32dd\	.	.	.	.	.	.	.	.	.	.
.	.	.	.	.	.	32B/	.	32f#/	32dd\	.	.	.	.	.	.	.	.	.	.
.	.	.	.	.	.	32B/	.	32f#/	32dd\	.	.	.	.	.	.	.	.	.	.
.	.	.	.	.	.	32B/JJJ	.	32f#/JJJ	32dd\JJJ	.	.	.	.	.	.	.	.	.	.
*	*	*	*	*	*	*Xtremolo	*	*Xtremolo	*Xtremolo	*	*	*	*	*	*	*	*	*	*
*v	*v	*	*	*	*	*	*	*	*	*	*	*	*	*	*	*	*	*	*
*	*v	*v	*	*	*	*	*	*	*	*	*	*	*	*	*	*	*	*
!!LO:LB:g=original
=15	=15	=15	=15	=15	=15	=15	=15	=15	=15	=15	=15	=15	=15	=15	=15	=15	=15
2..EE/ 2..E	2..B/ 2..d 2..e 2..g#	(2..E\	.	(2..B/	.	(2..d/	(2..g#/	.	(2..E\	-ię-	.	(2..B\	(2..d/	.	(>2..g#/	-ię-	.
8AA\ 8A	8c#/ 8e 8a	8A\)	.	8A/)	.	8c#/)	8a/)	.	8A\)	.	.	8A\)	8c#/)	.	8a/)	.	.
=	=	=	=	=	=	=	=	=	=	=	=	=	=	=	=	=	=
[>2AA\ [2A	[2c#/ [>2e [2a	4A\	.	4A/	.	4c#/	4a/	.	4A\	-ty!	.	4A\	4c#/	.	4a/	-ty!	.
.	.	4r	.	4r	.	4r	4r	.	4r	.	.	4r	4r	.	4r	.	.
8AA\] 8A]	8c#/] 8e] 8a]	8r;	.	8r;	.	8r;	8r;	.	8r;	.	.	8r;	8r;	.	8r;	.	.
=16||	=16||	=16||	=16||	=16||	=16||	=16||	=16||	=16||	=16||	=16||	=16||	=16||	=16||	=16||	=16||	=16||	=16||
*	*^	*	*	*	*	*	*	*	*	*	*	*	*	*	*	*	*
!LO:TX:t=P:problem=mixed beam	!	!	!LO:TX:t=P:problem=mixed beam	!LO:DY:a	!	!	!	!	!LO:DY:a	!	!	!LO:DY:a	!	!	!	!LO:TX:a:B:t=All(erg).o. mod(era).to.	!	!LO:DY:a
8AA/L	4.a/	8e\L 8gn	8AA/L	p	(8e'\L	.	(8gn'/L	(8a'/L	p	8A\	Peł-	p	8e\	8gn/	.	8a/	Peł-	p
8A\	.	8d\ 8f#	8A\	.	8d'\	.	8f#'/	8a'/	.	8A\	-ne	.	8d\	8f#/	.	8a/	-ne	.
8AA/J	.	8c#\J 8e	8AA/J	.	8c#'\J)	.	8e'/J)	8a'/J)	.	8A\	iest	.	8c#\	8e/	.	8a/	iest	.
=17	=17	=17	=17	=17	=17	=17	=17	=17	=17	=17	=17	=17	=17	=17	=17	=17	=17	=17
*^	*	*	*	*	*	*	*	*	*	*	*	*	*	*	*	*	*	*
4.A/	4.D\	4f#/ 4a 4dd	2ryy	4.D\	.	(4d\	.	(4a/	(4ff#\	.	4D\	Nie-	.	4d\	4a/	.	4ff#\	Nie-	.
.	.	8f#/ 8a 8dd	.	.	.	8A/)	.	8f#/)	8dd\)	.	8D\	-bo	.	8A\	8f#/	.	8dd\	-bo	.
8r	8ryy	8r	.	8r	.	8r	.	8r	8r	.	8r	.	.	8r	8r	.	8r	.	.
*	*	*	*	*	*	*	*	*	*tremolo	*	*	*	*	*	*	*	*	*	*
!LO:TX:t=P:problem=mixed beam	!	!	!	!LO:TX:t=P:problem=mixed beam	!	!	!	!	!	!	!	!	!	!	!	!	!	!	!
8A\L	2ryy	2a/	8c#\L 8e	8A\L	.	8c#\L	.	8e/L	(8a'/L	.	8A\	pe-	.	8c#\	8e/	.	8a/	pe-	.
8AA/	.	.	8e\ 8gn	8AA/	.	8e\	.	8gn/	8a'/	.	8A\	-len	.	8e\	8gn/	.	8a/	-łen	.
8A\	.	.	8d\ 8f#	8A\	.	8d\	.	8f#/	8a'/	.	8A\	iest	.	8d\	8f#/	.	8a/	iest	.
8AA/J	.	.	8c#\J 8e	8AA/J	.	8c#\J	.	8e/J	8a'/J)	.	8A\	świat	.	8c#\	8e/	.	8a/	świat	.
*	*	*	*	*	*	*	*	*	*Xtremolo	*	*	*	*	*	*	*	*	*	*
*v	*v	*	*	*	*	*	*	*	*	*	*	*	*	*	*	*	*	*	*
*	*v	*v	*	*	*	*	*	*	*	*	*	*	*	*	*	*	*	*
=18	=18	=18	=18	=18	=18	=18	=18	=18	=18	=18	=18	=18	=18	=18	=18	=18	=18
2D\ 2A	4d/ 4f# 4a	2D\	.	2d\	.	2f#/	(8.a/L	.	4D\	ca-	.	4d\	4f#/	.	8.a/L	ca-	.
.	.	.	.	.	.	.	16dd/Jk)	.	.	.	.	.	.	.	16dd/Jk	.	.
.	4d/ 4f# 4dd	.	.	.	.	.	4dd\	.	4D\	-ły	.	4d\	4f#/	.	4dd\	-ły	.
!	!	!	!	!	!	!	!	!	!	!	!LO:DY:a	!	!	!	!	!	!
8r	8r	8r	.	8r	.	8r	8r	.	8r	.	f	8r	8r	.	8r	.	.
!	!	!	!LO:DY:a	!	!LO:DY:a	!	!	!LO:DY:a	!	!	!	!	!	!	!	!	!LO:DY:a
8D\L 8F# 8A 8d	8f#/L 8a 8dd	8D\L	f	8d\L	f	8a/L	8dd\L	f	8D\	Ie-	.	8d\	8a/	.	8dd\	Ie-	f
8E\ 8Gn 8A 8c#	8e/ 8gn 8a 8cc#	8E\	.	8c#\	.	8a/	8cc#\	.	8E\	-go	.	8c#\	8a/	.	8cc#\	-go	.
8F#\J 8A 8d	8a/J 8dd	8F#\J	.	8d\J	.	8a/J	8dd\J	.	8F#\	po	.	8d\	8a/	.	8dd\	po-	.
!!LO:PB:g=original
=19	=19	=19	=19	=19	=19	=19	=19	=19	=19	=19	=19	=19	=19	=19	=19	=19	=19
*	*^	*	*	*	*	*	*	*	*	*	*	*	*	*	*	*	*
!	!	!	!	!	!	!	!	!	!	!	!	!	!	!	!	!	!	!LO:DY:a
4Gn\ 4B	4gn/ 4b	2ryy	4Gn\	.	4B/	.	4gn/	4b\	.	4Gn\	.	.	4B\	4gn/	.	4b\	-tę-	p
!	!	!	!	!	!	!	!	!	!LO:DY:a	!	!	!	!	!	!	!	!	!
8E\L 8Gn	8b\L 8ggn	.	(8E\L	.	4B/	p	(8b/L	(8ggn\L	p	8E\	.	.	8B\	8b/	.	8gg#\	-gi	.
8G\J 8B	8g\J 8ee	.	8G\J)	.	.	.	8g/J)	8ee\J)	.	8G\	.	.	8B\	8g/	.	8ee\	i	.
!	!	!	!	!	!	!	!	!	!	!	!	!	!	!	!	!LO:TX:a:t=rall&colon;	!	!
2AA\ 2E 2A	8dd/L	2e\ 2g	4A\	.	2e\	.	2g/	(8dd\L	.	2A\	.	.	2e\	2g/	.	(8dd\L	chwa-	.
.	8cc#/	.	.	.	.	.	.	8cc#\	.	.	.	.	.	.	.	8cc#\	.	.
.	8b/	.	4AA/	.	.	.	.	8b\	.	.	.	.	.	.	.	8b\	.	.
.	8cc#/J	.	.	.	.	.	.	8cc#\J)	.	.	.	.	.	.	.	8cc#\J)	.	.
*	*v	*v	*	*	*	*	*	*	*	*	*	*	*	*	*	*	*	*
=20	=20	=20	=20	=20	=20	=20	=20	=20	=20	=20	=20	=20	=20	=20	=20	=20	=20
!	!	!	!	!	!	!	!	!	!	!	!	!	!	!	!LO:TX:a:t=a tempo	!	!
[>2D\ [2A	[>2d/ [>2f# [2dd	4D\	.	4d\	.	4f#/	4dd\	.	4D\	.	.	4d\	4f#/	.	4dd\	-ły	.
.	.	4r	.	4r	.	4r	4r	.	4r	.	.	4r	4r	.	4r	.	.
!	!	!	!	!	!	!	!	!	!	!	!LO:DY:a	!	!	!	!	!	!
8D\] 8A]	8d/] 8f#] 8dd]	8r	.	8r	.	8r	8r	.	8r	.	f	8r	8r	.	8r	.	.
!	!	!	!	!	!	!	!	!LO:DY:a	!	!	!	!	!	!	!	!	!
8D\L	8f#/L	8F#\L	.	8F#/L	f	8f#/L	8f#/L	f	8D\	.	.	8F#/	8f#/	.	8f#/	Za-	.
8d\	8dd/	8d\	.	8d/	.	8dd/	8dd/	.	8d\	.	.	8d\	8dd\	.	8dd\	-brzmij-	.
8B\J	8b/J	8B\J	.	8B/J	.	8b/J	8b/J	.	8B\	.	.	8B\	8b\	.	8b\	-cie	.
=21	=21	=21	=21	=21	=21	=21	=21	=21	=21	=21	=21	=21	=21	=21	=21	=21	=21
*	*^	*^	*	*	*	*	*	*	*	*	*	*^	*	*	*	*	*
[2F#\	[<2f#/ 2ff#	2ryy	(2F#\ 2f#	2ryy	.	(2f#\	.	(2ff#\	(2ff#\	.	2F#\	.	.	2f#\	2ryy	2f#/	.	2ff#\	gó-	.
8F#\]	8f#/]	4ryy	8F#/)	8F#\	.	8F#/)	.	8f#/)	8f#/)	.	8F#\	.	.	8F#/	4ryy	8f#/	.	8f#/	-ry	.
!	!	!	!	!	!	!	!	!	!	!	!	!	!	!	!	!	!	!	!	!LO:DY:a
8r	8r	.	8r	8ryy	.	8r	.	8r	8r	.	8r	.	.	8r	.	8r	.	8r	.	p
4F#\	4cc#/	4a#X\	4F#\	4ryy	.	4f#\	p	4a#X/	4cc#\	p	4F#\	.	.	4c#/	4A#X\	4a#X/	.	4cc#\	i	.
*	*v	*v	*	*	*	*	*	*	*	*	*	*	*	*	*	*	*	*	*	*
*	*	*v	*v	*	*	*	*	*	*	*	*	*	*	*	*	*	*	*	*
=22	=22	=22	=22	=22	=22	=22	=22	=22	=22	=22	=22	=22	=22	=22	=22	=22	=22	=22
(16F#\LL	2b\ 2dd	(16F#\LL	.	(16f#\LL	.	2b\	2dd\	.	2F#\	.	.	2d/	2B\	2b\	.	2dd\	mor-	.
16E#X\	.	16E#X\	.	16e#X\	.	.	.	.	.	.	.	.	.	.	.	.	.	.
16F#\	.	16F#\	.	16f#\	.	.	.	.	.	.	.	.	.	.	.	.	.	.
16E#\JJ	.	16E#\JJ	.	16e#\JJ	.	.	.	.	.	.	.	.	.	.	.	.	.	.
*rep	*	*rep	*	*rep	*	*	*	*	*	*	*	*	*	*	*	*	*	*
16F#\LL	.	16F#\LL	.	16f#\LL	.	.	.	.	.	.	.	.	.	.	.	.	.	.
16E#\	.	16E#\	.	16e#\	.	.	.	.	.	.	.	.	.	.	.	.	.	.
16F#\	.	16F#\	.	16f#\	.	.	.	.	.	.	.	.	.	.	.	.	.	.
16E#\JJ	.	16E#\JJ	.	16e#\JJ	.	.	.	.	.	.	.	.	.	.	.	.	.	.
*Xrep	*	*Xrep	*	*Xrep	*	*	*	*	*	*	*	*	*	*	*	*	*	*
.	8qdd/ 8qff#	.	.	.	.	(8qdd/	(8qff#/	.	.	.	.	(<8qd/ 8qf#	.	(8qdd/	.	(8qff#/	.	.
*rep	*	*rep	*	*rep	*	*	*	*	*	*	*	*	*	*	*	*	*	*
16F#\LL	4cc#\ 4ee	16F#\LL	.	16f#\LL	.	4cc#\)	4ee\)	.	4F#\	.	.	4c#\) 4e	2ryy	4cc#\)	.	4ee\)	-skie	.
16E#\	.	16E#\	.	16e#\	.	.	.	.	.	.	.	.	.	.	.	.	.	.
16F#\	.	16F#\	.	16f#\	.	.	.	.	.	.	.	.	.	.	.	.	.	.
16E#\JJ	.	16E#\JJ	.	16e#\JJ	.	.	.	.	.	.	.	.	.	.	.	.	.	.
*Xrep	*	*Xrep	*	*Xrep	*	*	*	*	*	*	*	*	*	*	*	*	*	*
*rep	*	*rep	*	*rep	*	*	*	*	*	*	*	*	*	*	*	*	*	*
16F#\LL	4b\ 4dd	16F#\LL	.	16f#\LL	.	4b\	4dd\	.	4F#\	.	.	4B\ 4d	.	4b\	.	4dd\	od-	.
16E#\	.	16E#\	.	16e#\	.	.	.	.	.	.	.	.	.	.	.	.	.	.
16F#\	.	16F#\	.	16f#\	.	.	.	.	.	.	.	.	.	.	.	.	.	.
16E#\JJ)	.	16E#\JJ)	.	16e#\JJ)	.	.	.	.	.	.	.	.	.	.	.	.	.	.
*Xrep	*	*Xrep	*	*Xrep	*	*	*	*	*	*	*	*	*	*	*	*	*	*
=23	=23	=23	=23	=23	=23	=23	=23	=23	=23	=23	=23	=23	=23	=23	=23	=23	=23	=23
(16F#\LL	2a#X/ 2cc#	(16F#\LL	.	(16f#\LL	.	[2a#X/	[2cc#\	.	2F#\	.	.	2c#/	2A#X\	2a#X/	.	2cc#\	-mę-	.
16E#X\	.	16E#X\	.	16e#X\	.	.	.	.	.	.	.	.	.	.	.	.	.	.
16F#\	.	16F#\	.	16f#\	.	.	.	.	.	.	.	.	.	.	.	.	.	.
16E#\JJ	.	16E#\JJ	.	16e#\JJ	.	.	.	.	.	.	.	.	.	.	.	.	.	.
*rep	*	*rep	*	*rep	*	*	*	*	*	*	*	*	*	*	*	*	*	*
16F#\LL	.	16F#\LL	.	16f#\LL	.	.	.	.	.	.	.	.	.	.	.	.	.	.
16E#\	.	16E#\	.	16e#\	.	.	.	.	.	.	.	.	.	.	.	.	.	.
16F#\	.	16F#\	.	16f#\	.	.	.	.	.	.	.	.	.	.	.	.	.	.
16E#\JJ	.	16E#\JJ	.	16e#\JJ	.	.	.	.	.	.	.	.	.	.	.	.	.	.
*Xrep	*	*Xrep	*	*Xrep	*	*	*	*	*	*	*	*	*	*	*	*	*	*
8F#\)	8a#/ 8cc#	8F#\)	.	8f#\)	.	8a#/]	8cc#\]	.	8F#\	.	.	8c#/	8A#\	8a#/	.	8cc#\	-ty	.
!	!	!	!	!	!	!	!	!LO:DY:a	!	!	!LO:DY:a	!	!	!	!	!	!	!LO:DY:a
8En\L	8e/L	8En\L	.	8en\L	.	8e/L	8e/L	f	8E\	.	f	8E/	8ryy	8e/	.	8e/	I	f
8c#\	8cc#/	8c#\	.	8cc#\	.	8cc#/	8cc#/	.	8c#\	.	.	8c#/	4ryy	8cc#/	.	8cc#\	wy	.
8A\J	8an/J	8A\J	.	8a\J	.	8an/J	8a/J	.	8A\	.	.	8An/	.	8an/	.	8a/	Na-	.
*	*	*	*	*	*	*	*	*	*	*	*	*v	*v	*	*	*	*	*
!!LO:LB:g=original
=24	=24	=24	=24	=24	=24	=24	=24	=24	=24	=24	=24	=24	=24	=24	=24	=24	=24
2E\ 2e	2ee\	(2e\	.	(2ee\	.	(2ee\	(2ee\	.	2E\	.	.	2e\	2e/	.	2ee\	-ro-	.
8E\	8e/	8E\)	.	8e\)	.	8e/)	8e/)	.	8E\	.	.	8E/	8e/	.	8e/	-dy	.
8r	8r	8r	.	8r	.	8r	8r	.	8r	.	.	8r	8r	.	8r	.	.
!	!	!	!LO:DY:a	!	!	!	!	!LO:DY:a	!	!	!LO:DY:a	!	!	!	!	!	!LO:DY:a
4E\ 4G# 4B	4e/ 4g# 4b	[4E\	p	[4e\	.	4g#/	4b\	p	[4E\	.	p	(4G#\ 4B	(4g#/	.	(4b\	Ie-	p
=25	=25	=25	=25	=25	=25	=25	=25	=25	=25	=25	=25	=25	=25	=25	=25	=25	=25
*^	*^	*	*	*	*	*	*	*	*	*	*	*	*	*	*	*	*
2A/ 2c#	1E	2a/ 2cc#	1e	4.E\]	.	4.e\]	.	4.a/	4.cc#\	.	4.E\]	.	.	4.A\) 4.c#	4.a/)	.	4.cc#\)	.	.
.	.	.	.	8E\	.	8e\	.	8a/	8cc#\	.	8E\	.	.	8A\ 8c#	8a/	.	8cc#\	-dno	.
.	.	8qcc#/ 8qee	.	.	.	.	.	(8qcc#/	(8qee/	.	.	.	.	8qc#/ 8qe	(8qcc#/	.	(8qee/	.	.
4B/ 4d	.	4b/ 4dd	.	4E\	.	4e\	.	4b/)	4dd\)	.	4E\	.	.	4B\ 4d	4b/)	.	4dd\)	zgo-	.
4A/ 4c#	.	4a/ 4cc#	.	4E\	.	4e\	.	(4a/	4cc#\	.	4E\	.	.	4A\ 4c#	4a/	.	4cc#\	-dnem	.
=26	=26	=26	=26	=26	=26	=26	=26	=26	=26	=26	=26	=26	=26	=26	=26	=26	=26	=26	=26
*	*	*	*^	*	*	*	*	*	*	*	*	*	*	*^	*	*	*	*	*
2.B/	1E	2.b/	4a\	2e\	2.E\	.	2.e\	.	4a/	2b\	.	2E\	.	.	2B/	4A\	(>4a/	.	2b\	pie-	.
.	.	.	8g#\L	.	.	.	.	.	8g#/L	.	.	.	.	.	.	8G#\L	8g#/L	.	.	.	.
.	.	.	8f#\J	.	.	.	.	.	8f#/J	.	.	.	.	.	.	8F#\J	8f#/J	.	.	.	.
.	.	.	2e\ 2g#	2ryy	.	.	.	.	4g#/)	4b\	.	4E\	.	.	4B/	4G#\	4g#/)	.	4b\	-niem	.
4B#X/	.	4b#X/	.	.	4E\	.	4e\	.	(4g#/	(4b#X\	.	4E\	.	.	4B#X/	4G#\	4g#/	.	4b#X\	śpie-	.
*v	*v	*	*	*	*	*	*	*	*	*	*	*	*	*	*	*	*	*	*	*	*
=27	=27	=27	=27	=27	=27	=27	=27	=27	=27	=27	=27	=27	=27	=27	=27	=27	=27	=27	=27	=27
*	*	*	*	*	*	*^	*	*	*	*	*	*	*	*	*	*	*	*	*	*
4.A\ 4.c#	4.cc#/	2a/	1e	4.A\	.	4.c#\	2ryy	.	4.a/)	4.cc#\)	.	4.A\	.	.	4.A\ 4.c#	2ryy	4.a/	.	4.cc#\	-waj-	.
8C#\ 8c#	8ee/	.	.	8c#\	.	8e\	.	.	8a/	8ee\	.	8c#\	.	.	8e\	.	8a/	.	8ee\	-cie	.
4BB/ 4B	4g#/ 4dd	2ryy	.	4B\	.	4e/	4d\	.	4g#/	4dd\	.	4B\	.	.	4e/	4d\	4g#/	.	4dd\	wiecz-	.
4AA/ 4A	4a/ 4cc#	.	.	4A\	.	4e/	4c#\	.	4a/	4cc#\	.	4A\	.	.	4e/	4c#\	4a/	.	4cc#\	-nie	.
*	*v	*v	*v	*	*	*v	*v	*	*	*	*	*	*	*	*	*	*	*	*	*	*
=28||	=28||	=28||	=28||	=28||	=28||	=28||	=28||	=28||	=28||	=28||	=28||	=28||	=28||	=28||	=28||	=28||	=28||	=28||
*^	*	*	*	*	*	*	*	*	*	*	*	*	*	*	*	*	*	*
*	*	*	*	*	*tremolo	*	*tremolo	*tremolo	*	*	*	*	*	*	*	*	*	*	*
!	!	!	!	!	!	!LO:DY:a	!	!	!LO:DY:a	!	!	!LO:DY:a	!	!	!	!	!	!	!LO:DY:a
2D\ 2A	2ryy	2f#/ 2a 2ff#	8D\L	ff	32d\LLL 32f#	ff	32d/LLL 32a	32a\LLL 32ff#	ff	2D\	.	f	2f#/	2d\	2a/	.	2ff#\	Świę-	f
.	.	.	.	.	32d\ 32f#	.	32d/ 32a	32a\ 32ff#	.	.	.	.	.	.	.	.	.	.	.
.	.	.	.	.	32d\ 32f#	.	32d/ 32a	32a\ 32ff#	.	.	.	.	.	.	.	.	.	.	.
.	.	.	.	.	32d\ 32f#	.	32d/ 32a	32a\ 32ff#	.	.	.	.	.	.	.	.	.	.	.
.	.	.	8F#\	.	32d\ 32f#	.	32d/ 32a	32a\ 32ff#	.	.	.	.	.	.	.	.	.	.	.
.	.	.	.	.	32d\ 32f#	.	32d/ 32a	32a\ 32ff#	.	.	.	.	.	.	.	.	.	.	.
.	.	.	.	.	32d\ 32f#	.	32d/ 32a	32a\ 32ff#	.	.	.	.	.	.	.	.	.	.	.
.	.	.	.	.	32d\ 32f#	.	32d/ 32a	32a\ 32ff#	.	.	.	.	.	.	.	.	.	.	.
.	.	.	8A\	.	32d\ 32f#	.	32d/ 32a	32a\ 32ff#	.	.	.	.	.	.	.	.	.	.	.
.	.	.	.	.	32d\ 32f#	.	32d/ 32a	32a\ 32ff#	.	.	.	.	.	.	.	.	.	.	.
.	.	.	.	.	32d\ 32f#	.	32d/ 32a	32a\ 32ff#	.	.	.	.	.	.	.	.	.	.	.
.	.	.	.	.	32d\ 32f#	.	32d/ 32a	32a\ 32ff#	.	.	.	.	.	.	.	.	.	.	.
.	.	.	8d\J	.	32d\ 32f#	.	32d/ 32a	32a\ 32ff#	.	.	.	.	.	.	.	.	.	.	.
.	.	.	.	.	32d\ 32f#	.	32d/ 32a	32a\ 32ff#	.	.	.	.	.	.	.	.	.	.	.
.	.	.	.	.	32d\ 32f#	.	32d/ 32a	32a\ 32ff#	.	.	.	.	.	.	.	.	.	.	.
.	.	.	.	.	32d\ 32f#	.	32d/ 32a	32a\JJJ 32ff#	.	.	.	.	.	.	.	.	.	.	.
2A/	2F#\	2d/ 2a 2dd	8F#\L	.	32d\ 32f#	.	32d/ 32a	32dd\LLL	.	2F#\	.	.	2d/	2d\	2a/	.	2dd\	-ty!	.
.	.	.	.	.	32d\ 32f#	.	32d/ 32a	32dd\	.	.	.	.	.	.	.	.	.	.	.
.	.	.	.	.	32d\ 32f#	.	32d/ 32a	32dd\	.	.	.	.	.	.	.	.	.	.	.
.	.	.	.	.	32d\ 32f#	.	32d/ 32a	32dd\	.	.	.	.	.	.	.	.	.	.	.
.	.	.	8A\	.	32d\ 32f#	.	32d/ 32a	32dd\	.	.	.	.	.	.	.	.	.	.	.
.	.	.	.	.	32d\ 32f#	.	32d/ 32a	32dd\	.	.	.	.	.	.	.	.	.	.	.
.	.	.	.	.	32d\ 32f#	.	32d/ 32a	32dd\	.	.	.	.	.	.	.	.	.	.	.
.	.	.	.	.	32d\ 32f#	.	32d/ 32a	32dd\	.	.	.	.	.	.	.	.	.	.	.
.	.	.	8d\	.	32d\ 32f#	.	32d/ 32a	32dd\	.	.	.	.	.	.	.	.	.	.	.
.	.	.	.	.	32d\ 32f#	.	32d/ 32a	32dd\	.	.	.	.	.	.	.	.	.	.	.
.	.	.	.	.	32d\ 32f#	.	32d/ 32a	32dd\	.	.	.	.	.	.	.	.	.	.	.
.	.	.	.	.	32d\ 32f#	.	32d/ 32a	32dd\	.	.	.	.	.	.	.	.	.	.	.
.	.	.	8F#\J	.	32d\ 32f#	.	32d/ 32a	32dd\	.	.	.	.	.	.	.	.	.	.	.
.	.	.	.	.	32d\ 32f#	.	32d/ 32a	32dd\	.	.	.	.	.	.	.	.	.	.	.
.	.	.	.	.	32d\ 32f#	.	32d/ 32a	32dd\	.	.	.	.	.	.	.	.	.	.	.
.	.	.	.	.	32d\JJJ 32f#	.	32d/JJJ 32a	32dd\JJJ	.	.	.	.	.	.	.	.	.	.	.
*v	*v	*	*	*	*	*	*	*	*	*	*	*	*v	*v	*	*	*	*	*
!!LO:PB:g=original
=29	=29	=29	=29	=29	=29	=29	=29	=29	=29	=29	=29	=29	=29	=29	=29	=29	=29
1E 1G# 1B	1e 1g# 1b	8E\L	.	32e\LLL	.	32g#/LLL	32b/LLL	.	2E\	Swię-	.	2e\	2g#/	.	2b\	świę-	.
.	.	.	.	32e\	.	32g#/	32b/	.	.	.	.	.	.	.	.	.	.
.	.	.	.	32e\	.	32g#/	32b/	.	.	.	.	.	.	.	.	.	.
.	.	.	.	32e\	.	32g#/	32b/	.	.	.	.	.	.	.	.	.	.
.	.	8G#\	.	32e\	.	32g#/	32b/	.	.	.	.	.	.	.	.	.	.
.	.	.	.	32e\	.	32g#/	32b/	.	.	.	.	.	.	.	.	.	.
.	.	.	.	32e\	.	32g#/	32b/	.	.	.	.	.	.	.	.	.	.
.	.	.	.	32e\	.	32g#/	32b/	.	.	.	.	.	.	.	.	.	.
.	.	8B\	.	32e\	.	32g#/	32b/	.	.	.	.	.	.	.	.	.	.
.	.	.	.	32e\	.	32g#/	32b/	.	.	.	.	.	.	.	.	.	.
.	.	.	.	32e\	.	32g#/	32b/	.	.	.	.	.	.	.	.	.	.
.	.	.	.	32e\	.	32g#/	32b/	.	.	.	.	.	.	.	.	.	.
.	.	8e\J	.	32e\	.	32g#/	32b/	.	.	.	.	.	.	.	.	.	.
.	.	.	.	32e\	.	32g#/	32b/	.	.	.	.	.	.	.	.	.	.
.	.	.	.	32e\	.	32g#/	32b/	.	.	.	.	.	.	.	.	.	.
.	.	.	.	32e\	.	32g#/	32b/	.	.	.	.	.	.	.	.	.	.
.	.	8E\L	.	32e\	.	32g#/	32b\	.	2E\	-ty!	.	2e\	2g#/	.	2b\	-ty!	.
.	.	.	.	32e\	.	32g#/	32b\	.	.	.	.	.	.	.	.	.	.
.	.	.	.	32e\	.	32g#/	32b\	.	.	.	.	.	.	.	.	.	.
.	.	.	.	32e\	.	32g#/	32b\	.	.	.	.	.	.	.	.	.	.
.	.	8G#\	.	32e\	.	32g#/	32b\	.	.	.	.	.	.	.	.	.	.
.	.	.	.	32e\	.	32g#/	32b\	.	.	.	.	.	.	.	.	.	.
.	.	.	.	32e\	.	32g#/	32b\	.	.	.	.	.	.	.	.	.	.
.	.	.	.	32e\	.	32g#/	32b\	.	.	.	.	.	.	.	.	.	.
.	.	8B\	.	32e\	.	32g#/	32b\	.	.	.	.	.	.	.	.	.	.
.	.	.	.	32e\	.	32g#/	32b\	.	.	.	.	.	.	.	.	.	.
.	.	.	.	32e\	.	32g#/	32b\	.	.	.	.	.	.	.	.	.	.
.	.	.	.	32e\	.	32g#/	32b\	.	.	.	.	.	.	.	.	.	.
.	.	8E\J	.	32e\	.	32g#/	32b\	.	.	.	.	.	.	.	.	.	.
.	.	.	.	32e\	.	32g#/	32b\	.	.	.	.	.	.	.	.	.	.
.	.	.	.	32e\	.	32g#/	32b\	.	.	.	.	.	.	.	.	.	.
.	.	.	.	32e\JJJ	.	32g#/JJJ	32b\JJJ	.	.	.	.	.	.	.	.	.	.
=30	=30	=30	=30	=30	=30	=30	=30	=30	=30	=30	=30	=30	=30	=30	=30	=30	=30
[1AA [1E [1A	[>1e [>1a [1cc#	8A\L	.	32A/LLL 32e	.	32a/LLL	32cc#\LLL	.	1AA 1A	świę-	.	1e	1a	.	1cc#	świę-	.
.	.	.	.	32A/ 32e	.	32a/	32cc#\	.	.	.	.	.	.	.	.	.	.
.	.	.	.	32A/ 32e	.	32a/	32cc#\	.	.	.	.	.	.	.	.	.	.
.	.	.	.	32A/ 32e	.	32a/	32cc#\	.	.	.	.	.	.	.	.	.	.
.	.	8A\	.	32A/ 32e	.	32a/	32cc#\	.	.	.	.	.	.	.	.	.	.
.	.	.	.	32A/ 32e	.	32a/	32cc#\	.	.	.	.	.	.	.	.	.	.
.	.	.	.	32A/ 32e	.	32a/	32cc#\	.	.	.	.	.	.	.	.	.	.
.	.	.	.	32A/ 32e	.	32a/	32cc#\	.	.	.	.	.	.	.	.	.	.
.	.	8E\	.	32A/ 32e	.	32a/	32cc#\	.	.	.	.	.	.	.	.	.	.
.	.	.	.	32A/ 32e	.	32a/	32cc#\	.	.	.	.	.	.	.	.	.	.
.	.	.	.	32A/ 32e	.	32a/	32cc#\	.	.	.	.	.	.	.	.	.	.
.	.	.	.	32A/ 32e	.	32a/	32cc#\	.	.	.	.	.	.	.	.	.	.
.	.	8C#\J	.	32A/ 32e	.	32a/	32cc#\	.	.	.	.	.	.	.	.	.	.
.	.	.	.	32A/ 32e	.	32a/	32cc#\	.	.	.	.	.	.	.	.	.	.
.	.	.	.	32A/ 32e	.	32a/	32cc#\	.	.	.	.	.	.	.	.	.	.
.	.	.	.	32A/ 32e	.	32a/	32cc#\	.	.	.	.	.	.	.	.	.	.
!	!	!LO:TX:t=P:problem=mixed beam	!	!	!	!	!	!	!	!	!	!	!	!	!	!	!
.	.	8AA/L	.	32A/ 32e	.	32a/	32cc#\	.	.	.	.	.	.	.	.	.	.
.	.	.	.	32A/ 32e	.	32a/	32cc#\	.	.	.	.	.	.	.	.	.	.
.	.	.	.	32A/ 32e	.	32a/	32cc#\	.	.	.	.	.	.	.	.	.	.
.	.	.	.	32A/ 32e	.	32a/	32cc#\	.	.	.	.	.	.	.	.	.	.
.	.	8A\	.	32A/ 32e	.	32a/	32cc#\	.	.	.	.	.	.	.	.	.	.
.	.	.	.	32A/ 32e	.	32a/	32cc#\	.	.	.	.	.	.	.	.	.	.
.	.	.	.	32A/ 32e	.	32a/	32cc#\	.	.	.	.	.	.	.	.	.	.
.	.	.	.	32A/ 32e	.	32a/	32cc#\	.	.	.	.	.	.	.	.	.	.
.	.	8E\	.	32A/ 32e	.	32a/	32cc#\	.	.	.	.	.	.	.	.	.	.
.	.	.	.	32A/ 32e	.	32a/	32cc#\	.	.	.	.	.	.	.	.	.	.
.	.	.	.	32A/ 32e	.	32a/	32cc#\	.	.	.	.	.	.	.	.	.	.
.	.	.	.	32A/ 32e	.	32a/	32cc#\	.	.	.	.	.	.	.	.	.	.
.	.	8C#\J	.	32A/ 32e	.	32a/	32cc#\	.	.	.	.	.	.	.	.	.	.
.	.	.	.	32A/ 32e	.	32a/	32cc#\	.	.	.	.	.	.	.	.	.	.
.	.	.	.	32A/ 32e	.	32a/	32cc#\	.	.	.	.	.	.	.	.	.	.
.	.	.	.	32A/JJJ 32e	.	32a/JJJ	32cc#\JJJ	.	.	.	.	.	.	.	.	.	.
*	*	*	*	*Xtremolo	*	*Xtremolo	*Xtremolo	*	*	*	*	*	*	*	*	*	*
=31	=31	=31	=31	=31	=31	=31	=31	=31	=31	=31	=31	=31	=31	=31	=31	=31	=31
*	*^	*	*	*	*	*	*	*	*	*	*	*	*	*	*	*	*
4AA\] 4E] 4A]	4e/] 4a] 4cc#]	4ryy	4AA/	.	4A\ 4e	.	4A/ 4e 4a	4e\ 4cc# 4aa	.	4AA/ 4A	-ty!	.	4e\	4a/	.	4cc#\	-ty!	.
*clefG2	*	*	*	*	*clefG2	*	*	*	*	*	*	*	*	*	*	*	*	*
!	!	!	!	!	!	!	!	!	!LO:DY:a	!	!	!	!	!	!	!	!	!
(4cc#\	(4aa/	4ee\	4r	.	(4cc#\	.	(4ee\	(4aa\	p	4r	.	.	4r	4r	.	4r	.	.
4dd\	4bb/	4ff#\	2r	.	4dd\	.	4ff#\	4bb\	.	2r	.	.	2r	2r	.	2r	.	.
4ee\	4ccc#/	4gg#\	.	.	4ee\	.	4gg#\	4ccc#\	.	.	.	.	.	.	.	.	.	.
=32	=32	=32	=32	=32	=32	=32	=32	=32	=32	=32	=32	=32	=32	=32	=32	=32	=32	=32
4ff#\)	8eee/)	2aa\	1r	.	4ff#\)	.	2aa\)	8eee\)	.	1r	.	.	1r	1r	.	1r	.	.
.	4ddd/	.	.	.	.	.	.	4ddd\	.	.	.	.	.	.	.	.	.	.
8ffn\L	.	.	.	.	(8ffn\L	.	.	.	.	.	.	.	.	.	.	.	.	.
8ee\J	8ccc#/	.	.	.	8ee\J	.	.	8ccc#\	.	.	.	.	.	.	.	.	.	.
4dd#X\	8ccc#/L	4ff#\	.	.	4dd#X\	.	(4.ff#\	(8ccc#\L	.	.	.	.	.	.	.	.	.	.
.	8bb/	.	.	.	.	.	.	8bb\	.	.	.	.	.	.	.	.	.	.
4ddn\	8ff#/	8ff#\L	.	.	4ddn\	.	.	8ff#\	.	.	.	.	.	.	.	.	.	.
.	8gg#/J	8ee\J	.	.	.	.	8ee\	8gg#\J	.	.	.	.	.	.	.	.	.	.
=33	=33	=33	=33	=33	=33	=33	=33	=33	=33	=33	=33	=33	=33	=33	=33	=33	=33	=33
*	*	*	*^	*	*	*	*	*	*	*	*	*	*	*	*	*	*	*
4cc#\	4aa/	4ee\	4r	1r	.	8cc#\)	.	8ee\)	8aa\)	.	1r	.	.	1r	1r	.	1r	.	.
.	.	.	.	.	.	8r	pp	8r	8r	.	.	.	.	.	.	.	.	.	.
*	*	*	*	*	*	*clefC3	*	*	*	*	*	*	*	*	*	*	*	*	*
!	!	!	!	!	!	!	!	!	!	!LO:DY:b	!	!	!	!	!	!	!	!	!
4c#/	(>4e/ 4a	4ryy	(4c#\	.	.	(4c#\	.	(4e/	(4a/	pp	.	.	.	.	.	.	.	.	.
4d/	4f#/ 4b	2ryy	4d\	.	.	4d\	.	4f#/	4b/	.	.	.	.	.	.	.	.	.	.
4e/	4g#/ 4cc#	.	4e\	.	.	4e\	.	4g#/	4cc#/	.	.	.	.	.	.	.	.	.	.
!!LO:LB:g=original
=34	=34	=34	=34	=34	=34	=34	=34	=34	=34	=34	=34	=34	=34	=34	=34	=34	=34	=34	=34
!	!LO:TX:t=P:problem=brak zakończenia łuku	!	!LO:TX:t=P:problem=brak zakończenia łuku	!	!	!LO:TX:t=P:problem=brak zakończenia łuku	!	!LO:TX:t=P:problem=brak zakończenia łuku	!LO:TX:t=P:problem=brak zakończenia łuku	!	!	!	!	!	!	!	!	!	!
4f#/	8ee/)	2a\	(4f#\)	1r	.	(4f#\)	.	2a/)	8ee\)	.	1r	.	.	1r	1r	.	1r	.	.
.	4dd/	.	.	.	.	.	.	.	4dd\	.	.	.	.	.	.	.	.	.	.
8fn/L	.	.	8fn\L	.	.	8fn\L	.	.	.	.	.	.	.	.	.	.	.	.	.
8e/J	[8cc#/	.	8e\J	.	.	8e\J	.	.	8cc#\	.	.	.	.	.	.	.	.	.	.
4d#X/	8cc#/L]	4.f#\	4d#X\	.	.	4d#X\	.	(4.f#/	(8cc#/L	.	.	.	.	.	.	.	.	.	.
.	8b/	.	.	.	.	.	.	.	8b/	.	.	.	.	.	.	.	.	.	.
4dn/	8f#/	.	4dn\)	.	.	4dn\)	.	.	8f#/	.	.	.	.	.	.	.	.	.	.
.	8g#/J	8e\	.	.	.	.	.	8e/)	8g#/J	.	.	.	.	.	.	.	.	.	.
*	*v	*v	*	*	*	*	*	*	*	*	*	*	*	*	*	*	*	*	*
=35	=35	=35	=35	=35	=35	=35	=35	=35	=35	=35	=35	=35	=35	=35	=35	=35	=35	=35
!	!	!	!	!	!	!	!LO:SIC:v:s=8e	!	!	!	!	!	!	!	!	!	!	!
8c#/	8e/ 8a	8c#/	4r	.	8c#\	.	8d/	8a/)	.	1r	.	.	1r	1r	.	1r	.	.
8r	8r	8r	.	.	8r	.	8r	8r	.	.	.	.	.	.	.	.	.	.
*clefF4	*	*	*	*	*	*	*	*	*	*	*	*	*	*	*	*	*	*
4D\ 4A	4d/ 4f#	(4D/	4ryy	.	4.A/	.	(4d/	(4f#/	.	.	.	.	.	.	.	.	.	.
8AA\ 8E 8A	8c#/ 8a	8AA/)	2ryy	.	.	.	8c#/)	8a/)	.	.	.	.	.	.	.	.	.	.
8r	8r	8r	.	.	8r	.	8r	8r	.	.	.	.	.	.	.	.	.	.
4D\ 4A	4d/ 4f#	(4D/	.	.	[4A/	.	(4d/	(4f#/	.	.	.	.	.	.	.	.	.	.
*	*	*v	*v	*	*	*	*	*	*	*	*	*	*	*	*	*	*	*
=36	=36	=36	=36	=36	=36	=36	=36	=36	=36	=36	=36	=36	=36	=36	=36	=36	=36
1AA;< 1E 1A	1c#; 1a	4AA/)	.	4A/]	.	4c#/)	4a/)	.	1r;	.	.	1r;	1r;	.	1r;	.	.
.	.	4r	.	4r	.	4r	4r	.	.	.	.	.	.	.	.	.	.
.	.	2r;	.	2r;	.	2r;	2r;	.	.	.	.	.	.	.	.	.	.
!!LO:PB:g=original
==	==	==	==	==	==	==	==	==	==	==	==	==	==	==	==	==	==
*-	*-	*-	*-	*-	*-	*-	*-	*-	*-	*-	*-	*-	*-	*-	*-	*-	*-
!!!system-decoration: [(s1,s2,s3,s4)][(s5,s6,s7,s8)]{(s9,s10)}
!!!RDF**kern: < = below
!!!RDF**kern: > = above
!!!ENC: Marta Chmielewska
!!!END: 2021-04-29
!!!ENC: Andrzej Kubiczek
!!!END: 2021-04-13
